!!!!SEGMENT: pl-kozmzk--mzk-m-31--006_szymanowska-maria--preludium-c-dur.krn
!!!cenid: 18xx:442
!!!COM: Szymanowska, Maria
!!!COM-rismid: pe140138
!!!CDT: 1789/12/14-1831/07/25
!!!CNT: Polish
!!!GTL: Vingt Exercices et Préludes pour le Pianoforte
!!!OTL: Preludium C-dur
!!!PDT: 1819
!!!AGN: Secular; Prelude
!!!SMS-siglum: PL-KOZmzk
!!!SMS-shelfmark: mzk/m/31
!!!SMS-shelfwork: 006 G
!!!SMS-variant:
!!!SMS-altvar:
!!!NIFC-rismid: 1001025329
!!!URL-scan: http://repozytorium.nifc.pl/skany/pl-kozmzk-nut--mzkm31
!!!ONB-nifc:
**kern	**kern	**dynam
*part1	*part1	*part1
*staff2	*staff1	*
*Ipiano	*Iempty	*
*I"Piano	*	*
*I'P-no	*	*
*clefF4	*clefG2	*
*k[]	*k[]	*
*C:	*C:	*
*M4/4	*M4/4	*
*met(c)	*met(c)	*
=1	=1	=1
!LO:TX:a:t=piano ma ben marcato.	!LO:TX:a:B:t=Moderato.	!
16CC/	1r	.
16C\LL 16E\ 16G\	.	.
16C\ 16E\ 16A\	.	.
16C\JJ 16E\ 16B\	.	.
16C\LL 16E\ 16c\	.	.
16C\ 16E\ 16d\	.	.
16C\ 16E\ 16e\	.	.
16C\JJ 16E\ 16d\	.	.
16C\LL 16E\ 16c\	.	.
16C\ 16E\ 16B\	.	.
16C\ 16E\ 16A\	.	.
16C\JJ 16E\ 16G\	.	.
16C\LL 16E\ 16F#X\	.	.
16C\ 16E\ 16G\	.	.
16C\ 16E\ 16A\	.	.
16C\JJ 16E\ 16G\	.	.
=2	=2	=2
4BB\ 4D\ 4Fn\ 4G\	16r	.
.	16d/LL 16f/ 16g/	.
.	16d/ 16f/ 16a/	.
.	16d/JJ 16f/ 16b/	.
4r	16d/LL 16f/ 16cc/	.
.	16d/ 16f/ 16dd/	.
.	16d/ 16f/ 16ee/	.
.	16d/JJ 16f/ 16ff/	.
2r	16d/LL 16f/ 16ee/	.
.	16d/ 16f/ 16dd/	.
.	16d/ 16f/ 16cc/	.
.	16d/JJ 16f/ 16b/	.
.	16d/LL 16f/ 16a/	.
.	16d/ 16f/ 16g/	.
.	16d/ 16f/ 16a/	.
.	16d/JJ 16f/ 16b/	.
!!LO:LB:g=original
=3	=3	=3
*^	*	*
16r	2CC\	16c/LL 16e/ 16cc/	rfz<
16GG/LL 16C/	.	16c/ 16e/ 16g/	.
16GG/ 16C/	.	16c/ 16e/ 16a/	.
16GG/JJ 16C/	.	16c/JJ 16e/ 16b/	.
16GG/LL 16C/	.	16c/LL 16e/ 16cc/	.
16GG/ 16C/	.	16c/ 16e/ 16dd/	.
16GG/ 16C/	.	16c/ 16e/ 16ee/	.
16GG/JJ 16C/	.	16c/JJ 16e/ 16dd/	.
16r	2CC\	16c/LL 16e/ 16cc/	.
16GG/LL 16C/	.	16c/ 16e/ 16b/	.
16GG/ 16C/	.	16c/ 16e/ 16a/	.
16GG/JJ 16C/	.	16c/JJ 16e/ 16g/	.
16GG/LL 16C/	.	16c/LL 16e/ 16f#X/	.
16GG/ 16C/	.	16c/ 16e/ 16g/	.
16GG/ 16C/	.	16c/ 16e/ 16a/	.
16GG/JJ 16C/	.	16c/JJ 16e/ 16g/	[[
=4	=4	=4	=4
16r	2GG\	16r	.
16D/LL 16B/	.	16d/LL 16f/ 16g/	.
16D/ 16B/	.	16d/ 16f/ 16a/	.
16D/JJ 16B/	.	16d/JJ 16f/ 16b/	.
16D/LL 16B/	.	16d/LL 16f/ 16cc/	.
16D/ 16B/	.	16d/ 16f/ 16dd/	.
16D/ 16B/	.	16d/ 16f/ 16ee/	.
16D/JJ 16B/	.	16d/JJ 16f/ 16ff/	.
16r	2GG\	16d/LL 16f/ 16ee/	.
16D/LL 16G/	.	16d/ 16f/ 16dd/	.
16D/ 16G/	.	16d/ 16f/ 16cc/	.
16D/JJ 16G/	.	16d/JJ 16f/ 16b/	.
16D/LL 16G/	.	16d/LL 16f/ 16a/	.
16D/ 16G/	.	16d/ 16f/ 16g/	.
16D/ 16G/	.	16d/ 16f/ 16a/	.
16D/JJ 16G/	.	16d/JJ 16f/ 16b/	.
*v	*v	*	*
=5	=5	=5
(16C`\LL 16E-X\ 16G\	4c/ 4e-X/ 4cc/	.
16C`\ 16E-\ 16G\	.	.
16C`\ 16E-\ 16A\	.	.
16C`\JJ) 16E-\ 16B\	.	.
!	!	!LO:DY:a
16C\LL 16E-\ 16c\	4r	<
16C\ 16E-\ 16d\	.	.
16C\ 16E-\ 16e-X\	.	.
16C\JJ 16E-\ 16d\	.	[
4C\ 4E-\ 4c\	16r	.
.	(16c`/LL 16e-X/ 16g/	.
.	16c`/ 16e-/ 16a/	.
.	16c`/JJ) 16e-/ 16b/	.
4r	16c/LL 16e-/ 16cc/	<
.	16c/ 16e-/ 16dd/	.
.	16c/ 16e-/ 16ee-X/	.
.	16c/JJ 16e-/ 16dd/	[[
!!LO:LB:g=original
=6	=6	=6
16r	4c/ 4e-X/ 4cc/	[ <
16C\LL 16E-X\ 16G\	.	.
16C\ 16E-\ 16A-X\	.	.
16C\JJ 16E-\ 16B-X\	.	.
16C\LL 16E-\ 16c\	4r	.
16C\ 16E-\ 16B-\	.	.
16C\ 16E-\ 16A-\	.	.
16C\JJ 16E-\ 16G\	.	[
2AA-X\ 2A-X\	16r	.
.	16c/LL 16f#X/	rfz
.	16d/ 16f#/	>
.	16c/JJ 16f#/	.
.	16e-X/LL 16f#/	.
.	16e-/ 16f#/	.
.	16d/ 16f#/	.
.	16c/JJ 16f#/	]]
=7	=7	=7
16GG\LL 16D\ 16G\	8B/ 8g/	.
16GG\ 16D\ 16G\	.	.
16GG\ 16D\ 16G\	16g\LL 16b\ 16aa-X\	.
16GG\JJ 16D\ 16G\	16g\JJ 16b\ 16gg\	.
16GG\LL 16E-X\ 16G\	16g\LL 16cc\ 16ff\	.
16GG\ 16E-\ 16G\	16g\ 16cc\ 16ee-X\	.
16GG\ 16E-\ 16G\	16e-X\ 16g\ 16dd\	.
16GG\JJ 16E-\ 16G\	16e-\JJ 16g\ 16cc\	.
16GG\LL 16D\ 16G\	16d/LL 16f/ 16b/	.
16GG\ 16D\ 16G\	16d/ 16g/	.
16GG\ 16D\ 16G\	16d/ 16f/ 16a-X/	.
16GG\JJ 16D\ 16G\	16d/JJ 16f/ 16g/	.
16GG\LL 16E-\ 16G\	16c/LL 16e-/ 16cc/	.
16GG\ 16E-\ 16G\	16c/ 16e-/ 16g/	.
16GG\ 16E-\ 16G\	16e-/ 16g/ 16ee-/	.
16GG\JJ 16E-\ 16G\	16e-/JJ 16g/ 16cc/	.
=8	=8	=8
16GG\ 16D\ 16G\	16d/ 16g/ 16b/	.
16GGG/LL 16GG/	16G/LL 16B/ 16g/	.
16GGG/ 16GG/	16G/ 16B/ 16a-X/	.
16GGG/JJ 16GG/	16G/JJ 16B/ 16g/	.
16GGG\LL 16GG\	16G</LL 16c</ 16f/	.
16GGG\ 16GG\	16G</ 16c</ 16e-X/	.
16GGG\ 16GG\	16E-<X/ 16G</ 16d/	.
16GGG\JJ 16GG\	16E-</JJ 16G</ 16c/	.
16GGG\LL 16GG\	16D</LL 16F</ 16B</	.
16GGG\ 16GG\	16D</ 16F</ 16G</	.
16GGG\ 16GG\	16D</ 16F</ 16A-X</	.
16GGG\JJ 16GG\	16D</JJ 16F</ 16G</	.
16GGG\LL 16GG\	16C</LL 16E-</ 16c</	.
16GGG\ 16GG\	16C</ 16E-</ 16c</	.
16GGG\ 16GG\	16E-</ 16G</ 16e-X</	.
16GGG\JJ 16GG\	16E-</JJ 16G</ 16c</	.
!!LO:LB:g=original
=9	=9	=9
16GGG\ 16GG\	16D/ 16G/ 16B/	.
16FF#X\LL 16F#X\	16r	.
16GG\ 16G\	8r	.
16AA\JJ 16A\	.	.
16GG\LL 16G\	4r	.
16FFn\ 16Fn\	.	.
16EE\ 16E\	.	.
16DD\JJ 16D\	.	.
4CC/ 4C/	16r	.
.	(32e/LLL 32g/	p
.	32f/J) 32a/	.
.	16e/ 16g/	.
.	16e/JJ 16g/	.
!	!LO:N:vis=8	!
16r	16e/ 16g/	.
(16GGG`/LL 16GG/	16G/LL 16B/ 16g/	.
16AAA`/ 16AA/	16G/ 16c/ 16g/	.
16BBB`/JJ) 16BB/	16G/JJ 16d/ 16g/	.
=10	=10	=10
4CC/ 4C/	16G/ 16e/ 16g/	.
.	(32e/LLL 32g/	.
.	32f/J) 32a/	.
.	16e/ 16g/	p
.	16e/JJ 16g/	.
16r	16e/ 16g/	<
16GGG/LL 16GG/	16G/LL 16B/ 16g/	.
16AAA/ 16AA/	16G/ 16c/ 16g/	.
16BBB/JJ 16BB/	16G/JJ 16d/ 16g/	.
16CC/LL 16C/	16G/LL 16e/ 16g/	[
16BBB/ 16BB/	16G/ 16d/ 16g/	.
16CC/ 16C/	16G/ 16e/ 16g/	.
16BBB/JJ 16BB/	16G/JJ 16d/ 16g/	.
16AAA/LL 16AA/	16G/LL 16c#X/ 16g/	.
16AAA/ 16AA/	16G/ 16c#/ 16b-X/	.
16AAA/ 16AA/	16G/ 16c#/ 16a/	.
16CC#X/JJ 16C#X/	16G/JJ 16e/ 16g/	.
=11	=11	=11
4DD\ 4D\	16A/ 16d/ 16f/	.
.	(32f/LLL 32a/	.
.	32g/J) 32b-X/	.
.	16f/ 16a/	p <
.	16f/JJ 16a/	.
16r	16f/ 16a/	.
16AAA/LL 16AA/	16A/LL 16c#X/ 16a/	.
16BBB/ 16BB/	16A/ 16d/ 16a/	.
16CC#X/JJ 16C#X/	16A/JJ 16e/ 16a/	[
!!LO:LB:g=original
4DD/ 4D/	16A/ 16d/ 16f/	.
.	(32f/LLL 32a/	.
.	32g/J) 32b-X/	.
.	16f/ 16a/	.
.	16f/JJ 16a/	.
16r	16f/ 16a/	.
16AAA/LL 16AA/	16A/LL 16c#X/ 16a/	.
16BBB/ 16BB/	16A/ 16d/ 16a/	.
16CC#X/JJ 16C#X/	16A/JJ 16e/ 16a/	.
=12	=12	=12
16DD/LL 16D/	16A/LL 16f/ 16a/	<
16CC#X/ 16C#X/	16A/ 16e/ 16a/	.
16DD/ 16D/	16A/ 16f/ 16a/	.
16CCn/JJ 16Cn/	16A/JJ 16e/ 16a/	.
16BBB/ 16BB/	16A/ 16d#X/ 16a/	.
16BBB/LL 16BB/	16A/LL 16d#/ 16cc/	.
16BBB/ 16BB/	16A/ 16d#/ 16b/	.
16DD#X/JJ 16D#X/	16B/JJ 16f#X/ 16a/	.
4EE/ 4E/	16B/ 16e/ 16g/	[
.	(32g/LLL 32b/	.
.	32a/J) 32cc/	.
.	16g/ 16b/	p <
.	16g/JJ 16b/	.
16r	16g/ 16b/	.
16BBB/LL 16BB/	16B/LL 16d#X/ 16b/	.
16CC#X/ 16C#X/	16B/ 16e/ 16b/	.
16DD#X/JJ 16D#X/	16B/JJ 16f#X/ 16b/	[
=13	=13	=13
4EE/ 4E/	16B/ 16g/ 16b/	.
.	(32g/LLL 32b/	.
.	32a/J) 32cc/	.
.	16g/ 16b/	p
.	16g/JJ 16b/	.
16r	16g/ 16b/	<
16BBB/LL 16BB/	16B/LL 16d#X/ 16b/	.
16CC#X/ 16C#X/	16B/ 16e/ 16b/	.
16DD#X/JJ 16D#X/	16B/JJ 16f#X/ 16b/	.
16EE/LL 16E/	16B/LL 16g/ 16b/	.
16DD#/ 16D#/	16B/ 16f#/ 16b/	.
16EE/ 16E/	16B/ 16g/ 16b/	.
16DDn/JJ 16Dn/	16B/JJ 16f#/ 16b/	.
16CCn/LL 16Cn/	8e/L 8b/	.
16CC/ 16C/	.	.
16CC/ 16C/	8e/J 8f#/ 8a#X/	[
16CC/JJ 16C/	.	.
!!LO:LB:g=original
=14	=14	=14
*tremolo	*	*
16BBB/ 16BB/LL	8d#X/ 8b/	.
16BBB/ 16BB/	.	.
16BBB/ 16BB/	16b\LL 16dd#X\ 16ccc\	ff
16BBB/ 16BB/	16b\JJ 16dd#\ 16bb\	.
16BBB/ 16BB/	16b\LL 16ee\ 16aan\	.
16BBB/ 16BB/	16b\ 16ee\ 16gg\	.
16BBB/ 16BB/	16g\ 16b\ 16ff#X\	.
16BBB/ 16BB/JJ	16g\JJ 16b\ 16ee\	.
16BBB/ 16BB/LL	16f#X\LL 16a\ 16dd#\	.
16BBB/ 16BB/	16f#\ 16a\ 16b\	.
16BBB/ 16BB/	16f#\ 16a\ 16cc\	.
16BBB/ 16BB/	16f#\JJ 16a\ 16b\	.
16BBB/ 16BB/	16e\LL 16b\ 16ee\	.
16BBB/ 16BB/	16e\ 16g\ 16b\	.
16BBB/ 16BB/	16g\ 16b\ 16gg\	.
16BBB/ 16BBJJ/	16g\JJ 16b\ 16ee\	.
=15	=15	=15
16BBB/ 16BB/LL	16f#X\ 16b\ 16dd#X\	.
16BBB/ 16BB/	16B/LL 16d#X/ 16b/	.
16BBB/ 16BB/	16B/ 16d#/ 16cc/	.
16BBB/ 16BB/	16B/JJ 16d#/ 16b/	.
16BBB/ 16BB/	16B/LL 16e/ 16a/	>
16BBB/ 16BB/	16B/ 16e/ 16g/	.
16BBB/ 16BB/	16G</ 16B</ 16f#/	.
16BBB/ 16BB/JJ	16G</JJ 16B</ 16e/	.
16BBB\ 16BB\LL	16F</LL 16A</ 16d#X/	.
16BBB\ \16BB	16F</ 16A</ 16B/	.
16BBB\ 16BB\	16F</ 16A</ 16c/	.
16BBB\ 16BB\	16F</JJ 16A</ 16B/	.
16BBB\ 16BB\	16E</LL 16G</ 16e/	.
16BBB/ 16BB/	16E</ 16G</ 16B/	.
16BBB/ 16BB/	16G</ 16B</ 16g/	.
16BBB/ 16BB/JJ	16G</JJ 16B</ 16e/	.
*Xtremolo	*	*
!!LO:PB:g=original
=16	=16	=16
4BBB\ 4BB\	16F#X/ 16B/ 16d#X/	.
.	32B/LLL 32b/	.
!	!LO:TX:b:t=sempre piu forte.	!
.	32B/J 32b/	.
.	16B/ 16b/	.
.	16B/JJ 16b/	.
4r	16B/ 16b/	.
.	32b\LLL 32bb\	.
.	32b\J 32bb\	.
.	16b\ 16bb\	.
.	16b\JJ 16bb\	.
16GG\ 16G\	16b\ 16bb\	.
32G\LLL 32d\	32fn/LLL 32b/	.
32G\J 32d\	32f/J 32b/	.
16G\ 16d\	16f/ 16b/	.
16G\JJ 16d\	16f/JJ 16b/	.
!LO:TX:t=P:problem:mixed beam	!	!
16G\LL 16d\	16f/LL 16b/	.
16G\ 16d\	16f/ 16b/	.
16G\ 16d\	16f/ 16b/	.
!	!LO:SIC:o:s=:v:dn	!
16GG/JJ	16d#/JJ 16f/ 16b/	.
=17	=17	=17
*^	*	*
16r	1CC\	16c/ 16e/ 16cc/	.
16GG/LL 16C/	.	16c/LL 16e/ 16g/	.
!	!	!LO:TX:b:t=dol	!
16GG/ 16C/	.	16c/ 16e/ 16a/	.
16GG/JJ 16C/	.	16c/JJ 16e/ 16b/	.
16GG/LL 16C/	.	16c/LL 16e/ 16cc/	.
16GG/ 16C/	.	16c/ 16e/ 16dd/	.
16GG/ 16C/	.	16c/ 16e/ 16ee/	.
16GG/JJ 16C/	.	16c/JJ 16e/ 16dd/	.
16GG/LL 16C/	.	16c/LL 16e/ 16cc/	.
16GG/ 16C/	.	16c/ 16e/ 16b/	.
16GG/ 16C/	.	16c/ 16e/ 16a/	.
16GG/JJ 16C/	.	16c/JJ 16e/ 16g/	.
16GG/LL 16C/	.	16c/LL 16e/ 16f#X/	.
16GG/ 16C/	.	16c/ 16e/ 16g/	.
16GG/ 16C/	.	16c/ 16e/ 16a/	.
16GG/JJ 16C/	.	16c/JJ 16e/ 16g/	.
=18	=18	=18	=18
16r	2GG\	16d/LL 16fn/ 16g/	.
16D/LL 16B/	.	32d/L 32f/ 32g/	.
.	.	32d/J 32f/ 32a/	.
16D/ 16B/	.	16d/ 16f/ 16g/	.
16D/JJ 16B/	.	16d/JJ 16f/ 16g/	.
16D/LL 16B/	.	16d/ 16f/ 16g/	.
16D/ 16B/	.	(32ddd\LLL 32fff\	.
.	.	32ccc\JJJ) 32eee\	.
16D/ 16B/	.	16bb`\LL 16ddd\	.
16D/JJ 16B/	.	(32bb\L 32ddd\	.
.	.	32aa\JJJ) 32ccc\	.
!!LO:LB:g=original
16D/LL 16G/	2GG\	16gg`\LL 16bb\	.
16D/ 16G/	.	(32ddd\L 32fff\	.
.	.	32ccc\) 32eee\	.
16D/ 16G/	.	32bb`\ 32ddd\	.
.	.	(32aa\ 32ccc\	.
16D/JJ 16G/	.	32gg\) 32bb\	.
.	.	32ff`\ 32aa\	.
16D/LL 16G/	.	(32ee\ 32gg\	.
.	.	32dd\) 32ff\	.
16D/ 16G/	.	32cc`\ 32ee\	.
.	.	(32b\ 32dd\	.
16D/ 16G/	.	32a\) 32cc\	.
.	.	32g`\ 32b\	.
16D/JJ 16G/	.	(32f\ 32a\	.
.	.	32d\JJJ) 32b\	.
=19	=19	=19	=19
16r	1CC\	16c/ 16e/ 16cc/	.
16GG/LL 16C/	.	16c/LL 16e/ 16g/	.
16GG/ 16C/	.	16c/ 16e/ 16a/	.
16GG/JJ 16C/	.	16c/JJ 16e/ 16b/	.
16GG/LL 16C/	.	16c/LL 16e/ 16cc/	.
16GG/ 16C/	.	16c/ 16e/ 16dd/	.
16GG/ 16C/	.	16c/ 16e/ 16ee/	.
16GG/JJ 16C/	.	16c/JJ 16e/ 16dd/	.
16GG/LL 16C/	.	16c/LL 16e/ 16cc/	.
16GG/ 16C/	.	16c/ 16e/ 16b/	.
16GG/ 16C/	.	16c/ 16e/ 16a/	.
16GG/JJ 16C/	.	16c/JJ 16e/ 16g/	.
16GG/LL 16C/	.	16c/LL 16e/ 16f#X/	.
16GG/ 16C/	.	16c/ 16e/ 16g/	.
16GG/ 16C/	.	16c/ 16e/ 16a/	.
16GG/JJ 16C/	.	16c/JJ 16e/ 16g/	.
=20	=20	=20	=20
16r	2GG\	16d/LL 16f/ 16g/	.
16D/LL 16B/	.	32d/L 32f/ 32g/	.
.	.	32d/J 32f/ 32a/	.
16D/ 16B/	.	16d/ 16f/ 16g/	.
16D/JJ 16B/	.	16d/JJ 16f/ 16g/	.
16D/LL 16B/	.	16d/ 16f/ 16g/	.
16D/ 16B/	.	(32ddd\LLL 32fff\	.
.	.	32ccc\JJJ) 32eee\	.
16D/ 16B/	.	16bb`\LL 16ddd\	.
16D/JJ 16B/	.	(32bb\L 32ddd\	.
.	.	32aa\JJJ) 32ccc\	.
!!LO:LB:g=original
!	!LO:N:vis=1	!	!
16D/LL 16B/	2GG\	16gg`\LL 16bb\	.
16D/ 16B/	.	(32ddd\L 32fff\	.
.	.	32ccc\) 32eee\	.
16D/ 16B/	.	32bb`\ 32ddd\	.
.	.	(32ccc\ 32eee\	.
16D/JJ 16B/	.	32bb\ 32ddd\	.
.	.	32aa\JJJ) 32ccc\	.
16D/LL 16B/	.	32gg`\LLL 32bb\	.
.	.	(32aa\ 32ccc\	.
16D/ 16B/	.	32gg\ 32bb\	.
.	.	32ff\) 32aa\	.
16D/ 16B/	.	32ee`\ 32gg\	.
.	.	(32ff\ 32aa\	.
16D/JJ 16B/	.	32ee\ 32gg\	.
.	.	32dd\JJJ) 32ff\	.
*v	*v	*	*
=21	=21	=21
8.C\L 8.c\	16cc\LL 16ee\	.
.	32cc\L 32ee\	.
.	32dd\J 32ff\	.
.	16cc\ 16ee\	.
!	!	!LO:DY:b
16GG#X\Jk 16G#X\	16f\JJ 16b\ 16dd\	rfz
8.AA/L 8.A/	16e/LL 16a/ 16cc/	.
.	32a/L 32cc/	.
.	32b/J 32dd/	.
.	16a/ 16cc/	.
!	!	!LO:DY:b
16EE/Jk 16E/	16d/JJ 16g#X/ 16b/	rfz
8.FF/L 8.F/	16c/LL 16f/ 16a/	.
.	32f/L 32a/	.
.	32gn/J 32b/	.
.	16f/ 16a/	.
16FF#X/Jk 16F#X/	16c/JJ 16e-X/ 16a/	.
!LO:TX:t=P:problem:mixed beam	!LO:SIC:o:s=:v:Gn	!
8G#\L	16en/LL 16g/	.
.	16c/ 16e/	.
!	!LO:SIC:o:s=:v:GGn	!
8GG#/J	16d/ 16f/	.
.	16B/JJ 16d/	.
=22	=22	=22
8.C\L 8.c\	16c\LL 16e\	.
.	32cc\L 32ee\	.
.	32dd\J 32ff\	.
.	16cc\ 16ee\	.
!	!	!LO:DY:b
16GG#X\Jk 16G#X\	32f\L 32b\ 32ee\	rfz
.	32dd\JJJ	.
8.AA/L 8.A/	16e/LL 16a/ 16cc/	.
.	32a/L 32cc/	.
.	32b/J 32dd/	.
.	16a/ 16cc/	.
!	!	!LO:DY:b
16EE/Jk 16E/	32d/L 32g#X/ 32cc/	rfz
.	32b/JJJ	.
8.FF/L 8.F/	16c/LL 16f/ 16a/	.
.	32f/L 32a/	.
.	32g#/J 32b/	.
.	16f/ 16a/	.
!	!	!LO:DY:b
16FF#X/Jk 16F#X/	16c/JJ 16e-X/ 16a/	rfz
!	!LO:SIC:o:s=:v:Gn	!
!LO:TX:t=P:problem:mixed beam	!LO:SIC:o:s=:v:gn	!
8G#\L	16en`/LL 16g#/	.
.	16c`/ 16e/	.
!	!LO:SIC:o:s=:v:GGn	!
8GG#/J	16d`/ 16f/	.
.	16B`/JJ 16d/	.
!!LO:LB:g=original
=23	=23	=23
16C/	16c/	.
*	*^	*
16C#X^\LL 16c#X\	32aa/LLL	16a\LL 16ee\	.
.	32gg/J	.	.
16D\ 16d\	16ff/	16ff\	.
16BB^\JJ 16B\	32gg/L	16g\JJ 16dd\	.
.	32ff/JJJ	.	.
!LO:TX:t=P:problem:mixed beam	!	!	!
16Cn\LL 16cn\	16ee/LL	16ee\LL	.
16F\	32ee/L	16f\ 16a\	.
.	32dd/J	.	.
16G\	16cc/	16e\ 16g\	.
16GG/JJ	16b/JJ	16d\JJ 16f\	.
16C/	16e/ 16cc/	16c\	.
16C#X\LL 16c#X\	32bb-X/LLL	16a\LL 16ee\	.
.	32aa/J	.	.
16D\ 16d\	16ff/	16ff\	.
16BB\JJ 16B\	32aa/L	16g\JJ 16dd\	.
.	32gg/JJJ	.	.
!LO:TX:t=P:problem:mixed beam	!	!	!
16cn\LL	16ee/LL	16ee\LL	.
!	!LO:TUP:a:problem:klamra łukowa	!	!
16F\	48gg/L	16a\JJ	.
.	48ff/	.	.
.	48dd/JJJ	.	.
16G\	16cc/LL	16e\LL	.
16GG/JJ	16b/JJ	16d\JJ 16f\	.
=24	=24	=24	=24
16C/	4c 4e/ 4cc/	4c\	.
!	!	!	!LO:DY:b
16C\LL 16E\ 16G\	.	.	p
16C\ 16E\ 16A\	.	.	.
16C\JJ 16E\ 16B\	.	.	.
16C\LL 16E\ 16c\	4r	4rgyy	.
16C\ 16E\ 16d\	.	.	.
16C\ 16E\ 16e\	.	.	.
16C\JJ 16E\ 16d\	.	.	.
16C\LL 16E\ 16c\	2r	2rgyy	.
16C\ 16E\ 16B\	.	.	.
16C\ 16E\ 16A\	.	.	.
16C\JJ 16E\ 16G\	.	.	.
16C\LL 16E\ 16F#X\	.	.	.
16C\ 16E\ 16G\	.	.	.
16C\ 16E\ 16A\	.	.	.
16C\JJ 16E\ 16G\	.	.	.
*	*v	*v	*
!!LO:LB:g=original
=25	=25	=25
16GG`\ 16G\	16r	.
(16GG\LL 16G\	16g\LL 16b\ 16gg\	f
16AA\ 16A\	16a\ 16cc\ 16ff#X\	.
16BB\JJ) 16B\	16g\JJ 16dd\ 16ffn\	.
16C`\ 16c\	16g\ 16cc\ 16ee\	.
(16C\LL 16c\	16cc\LL 16ee\ 16ccc\	.
16D\ 16d\	16dd\ 16ff\ 16bb\	.
16E\JJ) 16e\	16cc\JJ 16gg\ 16bb-X\	.
16F\ 16f\	16ff\ 16aa\	<
16D\LL	16aa\LL 16fff\	.
.	8qfff/	.
16E\	16gg\ 16eee\	.
.	8qeee/	.
16F\JJ	16ff\JJ 16ddd\	.
16G\	16ee\ 16ccc\	[
16r	16r	.
16GG/	16dd\ 16bbn\	.
16r	16r	.
=26	=26	=26
4C/	16cc\ 16ee\ 16ccc\	.
.	16c/LL 16e/ 16g/	.
.	16c/ 16e/ 16a/	p
.	16c/JJ 16e/ 16b/	.
4r	16c/LL 16e/ 16cc/	.
.	16c/ 16e/ 16dd/	.
.	16c/ 16e/ 16ee/	.
.	16c/JJ 16e/ 16dd/	.
2r	16c/LL 16e/ 16cc/	.
.	16c/ 16e/ 16cc/	.
.	16c/ 16e/ 16b/	.
.	16c/JJ 16e/ 16a/	.
.	16c/LL 16e/ 16g#X/	.
.	16c/ 16e/ 16a/	.
.	16c/ 16e/ 16b/	.
.	16c/JJ 16e/ 16a/	<
=27	=27	=27
16EE/	16B/ 16e/ 16g#X/	.
16E\LL	16e/LL 16g#/ 16ee/	.
16F#X\	16f#X/ 16a/ 16dd#X/	.
16G#X\JJ	(16e/JJ 16b/ 16ddn/	.
!LO:TX:t=P:problem:mixed beam	!	!
16A`\LL	16e/) 16a/ 16cc/	[
(16AA/	16fn\LL 16cc\ 16ff\	.
16BB/)	16b\ 16ddn\	.
(16B\JJ	16gn\JJ 16dd\ 16gg\	.
!!LO:LB:g=original
16c\LL)	16cc\LL 16ee\	.
16e^\	16cc\ 16gg\ 16ccc\	.
(16f\	16ff\ 16aa\	.
.	8qeee/	.
16f#X^\JJ)	16dd\JJ 16aa\ 16ddd\	.
16g\	16ee\ 16ccc\	.
16r	16r	.
!	!LO:SIC:o:s=:v:Gn	!
16G#\	16dd\ 16bb\	.
16r	16r	.
=28	=28	=28
16C\ 16c\	16cc\ 16ee\ 16ccc\	.
16r	(32e/LLL 32g/	.
.	32f/J 32a/	.
16r	16e/ 16g/	.
16GG\ 16G\	16d/JJ) 16f/ 16b/	.
8C\L	32c`\LLL 32e\ 32cc\	<
.	32d`\ 32f\ 32dd\	.
.	32e`\ 32g\ 32ee\	.
.	32f`\JJJ 32a\ 32ff\	.
8GG\J 8G\	32g`\LLL 32b\ 32gg\	.
.	32a`\ 32cc\ 32aa\	.
.	32b`\ 32dd\ 32bb\	.
.	32g`\JJJ 32b\ 32gg\	.
8C/	16cc`\ 16ee\ 16ccc\	[
.	(32ee\LLL 32gg\	.
.	32ff\ 32aa\	.
8r	32ee\ 32gg\	.
.	32dd#X\ 32ff#X\	.
.	32ddn\ 32ffn\	.
.	32cc\JJJ) 32ee\	.
*	*8va	*
8GG\L 8G\	32b/LLL 32dd/ 32bb/	.
.	32cc/ 32ee/ 32ccc/	ff
.	32dd/ 32ff/ 32ddd/	.
.	32ee/ 32gg/ 32eee/	.
8GG\J 8G\	32ff/ 32aa/ 32fff/	.
.	32gg/ 32bb/ 32ggg/	.
.	32aa/ 32ccc/ 32aaa/	.
.	32bb/JJJ 32ddd/ 32bbb/	.
=29	=29	=29
2CC/ 2C/	2ccc;\ 2eee\ 2cccc\	.
*	*X8va	*
2r;	2r;	.
!LO:TX:b:t=3043	!	!
==	==	==
*-	*-	*-
!!!system-decoration: {(s1,s2)}
!!!RDF**kern: > = above
!!!RDF**kern: < = below
!!!RDF**dynam: > = dim
!!!EED: Leszek Kubiak
!!!EST: 2020-07-20
!!!ENC: Marcin Jachim
!!!END: 2020-06-16
